X:94
T:Port Party
M:C|
L:1/8
C: Paul Gitlitz 2001
B:Hunters and Gatherers
N: A yearly event till the port runs out. 
K:A
"A7/G#"=gece "A7"^gaef|"A7/E"=geca- "A7"aeee|"A7/G#"gece "A7"^gaef|"C"=ge=cB- "B7"Beee|! 
"A7/G#"=gece "A7"^gaee|"A7/E"=geca- "A7"aeee|"A7/G#"=gece "A7"^gaef|1"E7"e=cBA- "A7"A2ef:|2"E7"e=cBA- "A7"A4|! 
K:Am
|:"Am"EGAG "C"A [G3c3]|"Am"EGAc- "C"cAAA|"Am"EGAG "C"A [G3c3]|"C"[Gc][Gd] [G2c2] "G"[G4B4]|!
"Am"EGAG "Gsus4"A [G3c3]|"Am"EGAc- "Gsus4"cAAA| "Am"EGAG "C"A [G3c3]|"D7"cd ^d2"E7"e4:|]
